X: 2
T: The Ballygow
R: polka
M: 2/4
L: 1/8
K: Cmaj
|:CE/G/ ce|dc Ac|Gc EG|AG FD|
CE/G/ ce|dc Ac|Gc D>F|1 EC CG,:|2 EC C2||
|:ef/e/ dc|Ac Gc|ef/e/ dc|d2 d2|
ef/e/ dc|Ac Gc|EG D>F|1 EC C2:|2 EC CG,||

